X:744
T: Möginnám a, möginnám a, möginnám a vörösbort a pohárbú
M:4/4
L:1/8
K:Eb
CEDC FAGF | GcGE GFED | D C3 C2 z2 |
CEDC FAGF | GcGE GFED | D C3 C2 z2 |
e2 e2  d c3 | B2 G2 B2 z2 | AAFF c c3 | G2 E2 D2 z2 |
CEDC FAGF | GcGE GFED | D C3 C2 z2 |


